assets/Dropbox Icon.svg

<svg width="48" height="48" viewBox="0 0 48 48" fill="none" xmlns="http://www.w3.org/2000/svg">
<g opacity="0.2">
<path fill-rule="evenodd" clip-rule="evenodd" d="M0 24C0 10.7452 10.7452 0 24 0C37.2548 0 48 10.7452 48 24C48 37.2548 37.2548 48 24 48C10.7452 48 0 37.2548 0 24ZM18.295 10.4L9.60003 16.0772L15.6122 20.8916L24.3789 15.4782L18.295 10.4ZM9.6 25.7064L18.2949 31.3836L24.3792 26.3052L15.6122 20.8916L9.6 25.7064ZM24.3792 26.3052L30.4633 31.3835L39.1582 25.7063L33.1463 20.8917L24.3792 26.3052ZM39.1583 16.0772L30.4634 10.4L24.3789 15.4782L33.1463 20.8917L39.1583 16.0772ZM24.397 27.3976L18.2951 32.4611L15.6838 30.7563V32.6675L24.397 37.8925L33.1103 32.6675V30.7563L30.499 32.4611L24.397 27.3976Z" fill="#7B7989"/>
</g>
</svg>

<svg width="48" height="48" fill="none" xmlns="http://www.w3.org/2000/svg"><path fill-rule="evenodd" clip-rule="evenodd" d="M0 24C0 10.745 10.745 0 24 0s24 10.745 24 24-10.745 24-24 24S0 37.255 0 24Zm18.295-13.6L9.6 16.077l6.012 4.815 8.767-5.414-6.084-5.078ZM9.6 25.706l8.695 5.678 6.084-5.079-8.767-5.413L9.6 25.706Zm14.78.6 6.083 5.078 8.695-5.678-6.012-4.814-8.767 5.413Zm14.778-10.229L30.463 10.4l-6.084 5.078 8.767 5.414 6.012-4.815Zm-14.761 11.32-6.102 5.064-2.611-1.705v1.911l8.713 5.225 8.713-5.225v-1.91L30.5 32.46l-6.102-5.063Z" fill="#7B7989" opacity=".2"/></svg>
